X:179
T: ES WOLLT EIN MAEGDLEIN SEHR FRUEH AUFSTEHN
N: E0096
O: Europa, Mitteleuropa, Deutschland, Brandenburg; Sachsen; Odenwald
R: erzaehlendes Volks - Lied, Sage, Liebe, Leid, Tod
M: 3/4
L: 1/16
K: F
C2F2G2 | A2G2F2c2dcBA | G4z2
C2F2G2 | A2G2F2c2dcBA | G4z2
cBA2c2 | c2BAB2BAG2B2 | B2AGA2
cBA2G2 | F3GA2cBA2G2 | F4z2
cBA2c2 | c2BAB2BAG2B2 | B2AGA2
cBA2G2 | F3GA2cBA2G2 | F4z2

